epam-assets/icon-sources/18/file-cloud_upload.svg

<svg width="18" height="18" viewBox="0 0 18 18" fill="none" xmlns="http://www.w3.org/2000/svg">
<g id="18/file-cloud_upload">
<path id="icon" fill-rule="evenodd" clip-rule="evenodd" d="M10.5 9.75V12.75H7.5V9.75H5.25L9 6L12.75 9.75M14.5125 7.5225C14.0025 4.9425 11.73 3 9 3C6.8325 3 4.95 4.23 4.0125 6.0225C1.755 6.27 0 8.175 0 10.5C0 12.9853 2.01472 15 4.5 15H14.25C15.2446 15 16.1984 14.6049 16.9016 13.9017C17.6049 13.1984 18 12.2446 18 11.25C18 9.27 16.4625 7.665 14.5125 7.5225Z" fill="#6C6F80"/>
</g>
</svg>

<svg xmlns="http://www.w3.org/2000/svg" width="18" height="18" fill="none" viewBox="0 0 18 18">
  <path fill="#6C6F80" fill-rule="evenodd" d="M10.5 9.75v3h-3v-3H5.25L9 6l3.75 3.75m1.762-2.228A5.618 5.618 0 0 0 9 3a5.63 5.63 0 0 0-4.987 3.022A4.503 4.503 0 0 0 4.5 15h9.75A3.75 3.75 0 0 0 18 11.25c0-1.98-1.538-3.585-3.488-3.728Z" clip-rule="evenodd"/>
</svg>
